Newaita/actions/16/align-horizontal-left-out.svg

<svg height="16" viewBox="0 0 16 16" width="16" xmlns="http://www.w3.org/2000/svg"><g fill="#424242"><path d="m7.9375 14.679688c-.183594 0-.328125-.148438-.328125-.332032v-12.570312c0-.179688.144531-.328125.328125-.328125s.332031.148437.332031.328125v12.570312c0 .183594-.148437.332032-.332031.332032zm0 0"/><path d="m14.554688 10.046875c0-.730469-.589844-1.320313-1.324219-1.320313h-1.984375c-.734375 0-1.324219.589844-1.324219 1.320313v1.984375c0 .734375.589844 1.324219 1.324219 1.324219h1.984375c.734375 0 1.324219-.589844 1.324219-1.324219zm-1.324219.332031v1.324219c0 .183594-.148438.328125-.332031.328125h-1.320313c-.183594 0-.332031-.144531-.332031-.328125v-1.324219c0-.183594.148437-.332031.332031-.332031h1.320313c.183593 0 .332031.148437.332031.332031zm0 0"/><path d="m14.554688 4.09375c0-.734375-.589844-1.324219-1.324219-1.324219h-2.644531c-.734376 0-1.324219.589844-1.324219 1.324219v1.984375c0 .734375.589843 1.324219 1.324219 1.324219h2.644531c.734375 0 1.324219-.589844 1.324219-1.324219zm-1.324219.332031v1.320313c0 .183594-.148438.332031-.332031.332031h-1.984376c-.183593 0-.328124-.148437-.328124-.332031v-1.320313c0-.183593.144531-.332031.328124-.332031h1.984376c.183593 0 .332031.148438.332031.332031zm0 0"/><path d="m5.292969 13.355469c.730469 0 1.320312-.589844 1.320312-1.324219v-2.644531c0-.734375-.589843-1.324219-1.320312-1.324219h-1.984375c-.734375 0-1.324219.589844-1.324219 1.324219v2.644531c0 .734375.589844 1.324219 1.324219 1.324219zm0 0"/></g></svg>

<svg xmlns="http://www.w3.org/2000/svg" xmlns:xlink="http://www.w3.org/1999/xlink" width="16px" height="16px" viewBox="0 0 16 16" version="1.1">
<g id="surface1">
     <defs>
  <style id="current-color-scheme" type="text/css">
   .ColorScheme-Text { color:#424242; } .ColorScheme-Highlight { color:#eeeeee; }
  </style>
 </defs>
<path style="fill:currentColor" class="ColorScheme-Text" d="M 7.9375 14.679688 C 7.753906 14.679688 7.609375 14.53125 7.609375 14.347656 L 7.609375 1.777344 C 7.609375 1.597656 7.753906 1.449219 7.9375 1.449219 C 8.121094 1.449219 8.269531 1.597656 8.269531 1.777344 L 8.269531 14.347656 C 8.269531 14.53125 8.121094 14.679688 7.9375 14.679688 Z M 7.9375 14.679688 "/>
     <defs>
  <style id="current-color-scheme" type="text/css">
   .ColorScheme-Text { color:#424242; } .ColorScheme-Highlight { color:#eeeeee; }
  </style>
 </defs>
<path style="fill:currentColor" class="ColorScheme-Text" d="M 14.554688 10.046875 C 14.554688 9.316406 13.964844 8.726562 13.230469 8.726562 L 11.246094 8.726562 C 10.511719 8.726562 9.921875 9.316406 9.921875 10.046875 L 9.921875 12.03125 C 9.921875 12.765625 10.511719 13.355469 11.246094 13.355469 L 13.230469 13.355469 C 13.964844 13.355469 14.554688 12.765625 14.554688 12.03125 Z M 13.230469 10.378906 L 13.230469 11.703125 C 13.230469 11.886719 13.082031 12.03125 12.898438 12.03125 L 11.578125 12.03125 C 11.394531 12.03125 11.246094 11.886719 11.246094 11.703125 L 11.246094 10.378906 C 11.246094 10.195312 11.394531 10.046875 11.578125 10.046875 L 12.898438 10.046875 C 13.082031 10.046875 13.230469 10.195312 13.230469 10.378906 Z M 13.230469 10.378906 "/>
     <defs>
  <style id="current-color-scheme" type="text/css">
   .ColorScheme-Text { color:#424242; } .ColorScheme-Highlight { color:#eeeeee; }
  </style>
 </defs>
<path style="fill:currentColor" class="ColorScheme-Text" d="M 14.554688 4.09375 C 14.554688 3.359375 13.964844 2.769531 13.230469 2.769531 L 10.585938 2.769531 C 9.851562 2.769531 9.261719 3.359375 9.261719 4.09375 L 9.261719 6.078125 C 9.261719 6.8125 9.851562 7.402344 10.585938 7.402344 L 13.230469 7.402344 C 13.964844 7.402344 14.554688 6.8125 14.554688 6.078125 Z M 13.230469 4.425781 L 13.230469 5.746094 C 13.230469 5.929688 13.082031 6.078125 12.898438 6.078125 L 10.914062 6.078125 C 10.730469 6.078125 10.585938 5.929688 10.585938 5.746094 L 10.585938 4.425781 C 10.585938 4.242188 10.730469 4.09375 10.914062 4.09375 L 12.898438 4.09375 C 13.082031 4.09375 13.230469 4.242188 13.230469 4.425781 Z M 13.230469 4.425781 "/>
     <defs>
  <style id="current-color-scheme" type="text/css">
   .ColorScheme-Text { color:#424242; } .ColorScheme-Highlight { color:#eeeeee; }
  </style>
 </defs>
<path style="fill:currentColor" class="ColorScheme-Text" d="M 5.292969 13.355469 C 6.023438 13.355469 6.613281 12.765625 6.613281 12.03125 L 6.613281 9.386719 C 6.613281 8.652344 6.023438 8.0625 5.292969 8.0625 L 3.308594 8.0625 C 2.574219 8.0625 1.984375 8.652344 1.984375 9.386719 L 1.984375 12.03125 C 1.984375 12.765625 2.574219 13.355469 3.308594 13.355469 Z M 5.292969 13.355469 "/>
</g>
</svg>
